Papirus-nordic/24x24/apps/kfoldersync.svg

<svg xmlns="http://www.w3.org/2000/svg" width="24" height="24" version="1">
 <path style="opacity:.2" d="m21.99975 20.500567v-9.995958c0-0.5537753-0.44939-1.0607592-0.99999-0.9995841h-17.99978c-0.99998 0-0.99998 0.9579501-0.99998 0.9579501v10.037442c0 0.553764 0.44599 0.999583 0.99998 0.999583h17.99978c0.55399 0 0.99999-0.445819 0.99999-0.999583z"/>
 <path style="fill:#6c9b9a" d="m2 18.000282v-13.9960173c0-0.5538395 0.4492865-1.0042647 0.99998-1.0042647h6.00002c1-0.0002299 1 0.8012557 1 2h11s1.000001 0.0002917 1 1l-0.00001 12.000282c0 0.553849-0.44599 0.999718-0.99998 0.999718h-17.99978c-0.55399 0-0.99999-0.445869-0.99999-0.999718z"/>
 <path style="opacity:.1;fill:#ffffff" d="m3 3c-0.5506935 0-1 0.4500667-1 1.0039062v0.5c0-0.5538395 0.4493065-1.0039062 1-1.0039062h6c1-0.0002299 1 0.8012557 1 2h11s1.000001 0.0002917 1 1v-0.5c0.000001-0.9997083-1-1-1-1h-11c0-1.1987443 0-2.0002299-1-2h-6z"/>
 <path style="opacity:.2" d="m21.99975 19.500566v-9.9959707c0-0.5537653-0.449287-1.0045953-0.99999-1.0045953h-17.99978c-0.99998 0-0.99998 0.9629619-0.99998 0.9629619v10.0374541c0 0.553765 0.44599 0.999584 0.99998 0.999584h17.99978c0.55399 0 0.99999-0.445819 0.99999-0.999584z"/>
 <rect style="fill:#dcdcdc" width="16" height="8" x="4" y="7" rx=".889" ry="1"/>
 <path style="fill:#82abaa" d="m21.99975 20.000562v-9.995967c0-0.5537652-0.449287-1.004595-0.99999-1.004595h-17.99978c-0.99998 0-0.99998 0.9629616-0.99998 0.9629616v10.0374504c0 0.553765 0.44599 0.999584 0.99998 0.999584h17.99978c0.55399 0 0.99999-0.445819 0.99999-0.999584z"/>
 <circle style="fill:#5db41e" cx="17" cy="17" r="6"/>
 <path style="fill:#ffffff" d="m17 14a3 3 0 0 0 -3 3 3 3 0 0 0 3 3 3 3 0 0 0 3 -3 3 3 0 0 0 -3 -3zm0 1a2 2 0 0 1 2 2 2 2 0 0 1 -2 2 2 2 0 0 1 -2 -2 2 2 0 0 1 2 -2z"/>
 <path style="fill:#ffffff" d="m17 13v3l2-1.5z"/>
 <path style="fill:#ffffff" d="m17 18v3l-2-1.5z"/>
</svg>

<svg xmlns="http://www.w3.org/2000/svg" width="24" height="24" version="1"><path d="M22 20.5v-9.995c0-.554-.45-1.061-1-1H3c-1 0-1 .958-1 .958V20.5c0 .554.446 1 1 1h18c.554 0 1-.446 1-1z" opacity=".2"/><path d="M2 18V4.004C2 3.45 2.45 3 3 3h6c1 0 1 .801 1 2h11s1 0 1 1v12c0 .554-.446 1-1 1H3c-.554 0-1-.446-1-1z" fill="#6c9b9a"/><path d="M3 3c-.55 0-1 .45-1 1.004v.5C2 3.95 2.45 3.5 3 3.5h6c1 0 1 .801 1 2h11s1 0 1 1V6c0-1-1-1-1-1H10c0-1.199 0-2-1-2H3z" opacity=".1" fill="#fff"/><path d="M22 19.5V9.506c0-.554-.45-1.005-1-1.005H3c-1 0-1 .963-1 .963V19.5c0 .554.446 1 1 1h18c.554 0 1-.446 1-1z" opacity=".2"/><rect width="16" height="8" x="4" y="7" rx=".889" ry="1" fill="#dcdcdc"/><path d="M22 20v-9.995C22 9.45 21.55 9 21 9H3c-1 0-1 .963-1 .963V20c0 .554.446 1 1 1h18c.554 0 1-.446 1-1z" fill="#82abaa"/><circle cx="17" cy="17" r="6" fill="#5db41e"/><path d="M17 14a3 3 0 0 0-3 3 3 3 0 0 0 3 3 3 3 0 0 0 3-3 3 3 0 0 0-3-3zm0 1a2 2 0 0 1 2 2 2 2 0 0 1-2 2 2 2 0 0 1-2-2 2 2 0 0 1 2-2z" fill="#fff"/><path d="M17 13v3l2-1.5zM17 18v3l-2-1.5z" fill="#fff"/></svg>
